package/converter/svg/duotone/address-card.svg

<svg xmlns="http://www.w3.org/2000/svg" viewBox="0 0 576 512"><!-- Font Awesome Pro 6.0.0-alpha2 by @fontawesome - https://fontawesome.com License - https://fontawesome.com/license (Commercial License) --><defs><style>.fa-secondary{opacity:.4}</style></defs><path d="M512 32H64C28.654 32 0 60.654 0 96V416C0 451.346 28.654 480 64 480H512C547.346 480 576 451.346 576 416V96C576 60.654 547.346 32 512 32ZM176 128C211.346 128 240 156.654 240 192S211.346 256 176 256S112 227.346 112 192S140.654 128 176 128ZM272 384H80C71.164 384 64 376.836 64 368C64 323.816 99.816 288 144 288H208C252.184 288 288 323.816 288 368C288 376.836 280.836 384 272 384ZM496 320H368C359.164 320 352 312.836 352 304S359.164 288 368 288H496C504.836 288 512 295.164 512 304S504.836 320 496 320ZM496 256H368C359.164 256 352 248.836 352 240S359.164 224 368 224H496C504.836 224 512 231.164 512 240S504.836 256 496 256ZM496 192H368C359.164 192 352 184.836 352 176S359.164 160 368 160H496C504.836 160 512 167.164 512 176S504.836 192 496 192Z" class="fa-secondary"/><path d="M176 256C211.346 256 240 227.346 240 192S211.346 128 176 128S112 156.654 112 192S140.654 256 176 256ZM208 288H144C99.816 288 64 323.816 64 368C64 376.836 71.164 384 80 384H272C280.836 384 288 376.836 288 368C288 323.816 252.184 288 208 288Z" class="fa-primary"/></svg>

<svg xmlns="http://www.w3.org/2000/svg" viewBox="0 0 576 512"><!--! Font Awesome Pro 6.6.0 by @fontawesome - https://fontawesome.com License - https://fontawesome.com/license (Commercial License) Copyright 2024 Fonticons, Inc. --><defs><style>.fa-secondary{opacity:.4}</style></defs><path class="fa-secondary" d="M0 96L0 416c0 35.3 28.7 64 64 64l448 0c35.3 0 64-28.7 64-64l0-320c0-35.3-28.7-64-64-64L64 32C28.7 32 0 60.7 0 96zM64 368c0-44.2 35.8-80 80-80l64 0c44.2 0 80 35.8 80 80c0 8.8-7.2 16-16 16L80 384c-8.8 0-16-7.2-16-16zM240 192a64 64 0 1 1 -128 0 64 64 0 1 1 128 0zm112-16c0-8.8 7.2-16 16-16l128 0c8.8 0 16 7.2 16 16s-7.2 16-16 16l-128 0c-8.8 0-16-7.2-16-16zm0 64c0-8.8 7.2-16 16-16l128 0c8.8 0 16 7.2 16 16s-7.2 16-16 16l-128 0c-8.8 0-16-7.2-16-16zm0 64c0-8.8 7.2-16 16-16l128 0c8.8 0 16 7.2 16 16s-7.2 16-16 16l-128 0c-8.8 0-16-7.2-16-16z"/><path class="fa-primary" d="M176 256a64 64 0 1 0 0-128 64 64 0 1 0 0 128zm-32 32c-44.2 0-80 35.8-80 80c0 8.8 7.2 16 16 16l192 0c8.8 0 16-7.2 16-16c0-44.2-35.8-80-80-80l-64 0z"/></svg>
